resources/svg/user-manager.svg

<svg xmlns="http://www.w3.org/2000/svg" viewBox="0 0 24 24" fill="currentColor"><path fill="none" stroke="currentColor" stroke-width="2" d="M16,12 C18.3736719,13.1826446 20,15.6506255 20,19 L20,23 L4,23 L4,19 C4,15.6457258 5.6310898,13.1754259 8,12 M12,13 C15.3137085,13 18,10.3137085 18,7 C18,3.6862915 15.3137085,1 12,1 C8.6862915,1 6,3.6862915 6,7 C6,10.3137085 8.6862915,13 12,13 Z M18,7 C16.5,7 15,7.3599999 13,5 C11,7.3599999 8.5,8 6,7 M7,13 L12.0249378,18.2571942 L17,13 M12,18 L12,23"/></svg>

<svg viewBox="0 0 24 24"><path fill="none" stroke="currentColor" stroke-width="2" d="M16 12c2.374 1.183 4 3.65 4 7v4H4v-4c0-3.354 1.631-5.825 4-7m4 1a6 6 0 1 0 0-12a6 6 0 0 0 0 12zm6-6c-1.5 0-3 .36-5-2c-2 2.36-4.5 3-7 2m1 6l5.025 5.257L17 13m-5 5v5"/></svg>
